svgs/onedrive.svg

<svg width="192" height="192" viewBox="0 0 192 192" fill="none" xmlns="http://www.w3.org/2000/svg"><path fill-rule="evenodd" clip-rule="evenodd" d="M64.966 70.75C72.011 60.625 83.732 54 97 54c17.905 0 32.992 12.066 37.573 28.51l12.828 2.647C143.628 60.714 122.499 42 97 42c-21.317 0-39.579 13.078-47.2 31.649l15.166-2.9Z" fill="#000"/><path d="M167.531 125.759 76.998 74.898C52.39 61.073 22 78.858 22 107.083a36.75 36.75 0 0 0 6.718 21.24m138.813-2.564C162.89 136.49 152.209 144 139.773 144H58.917c-12.482 0-23.517-6.195-30.199-15.677m138.813-2.564A30.146 30.146 0 0 0 170 113.773c0-21.683-22.155-36.313-42.096-27.8l-99.186 42.35" stroke="#000" stroke-width="12" stroke-linecap="round" stroke-linejoin="round"/></svg>

<?xml version="1.0" encoding="UTF-8" standalone="no"?><svg xmlns:android="http://schemas.android.com/apk/res/android" height="192" width="192" xmlns="http://www.w3.org/2000/svg">
  <path d="M64.966,70.749C72.011,60.626 83.732,54 97,54C114.905,54 129.992,66.066 134.573,82.511L147.401,85.157C143.628,60.714 122.499,42 97,42C75.683,42 57.421,55.078 49.799,73.649L64.966,70.749Z" fill="#000000" fill-rule="evenOdd"/>
  <path d="M167.531,125.759L76.998,74.898C52.39,61.073 22,78.857 22,107.083C22,114.99 24.486,122.316 28.718,128.323M167.531,125.759C162.89,136.49 152.209,144 139.773,144H58.917C46.435,144 35.4,137.805 28.718,128.323M167.531,125.759C169.119,122.084 170,118.031 170,113.773C170,92.09 147.845,77.46 127.904,85.974L28.718,128.323" fill="#000000" fill-opacity="0.0" stroke="#000000" stroke-linecap="round" stroke-linejoin="round" stroke-width="12"/>
</svg>
